X:1
T:Title
%%score { ( 1 4 ) | ( 2 3 ) }
L:1/8
M:6/8
K:Bb
V:1 treble nm="Grand Piano"
V:4 treble 
V:2 bass 
V:3 bass 
V:1
 z3 z2[Q:1/4=84] [DB] | [Fd]>[Ec][DB] [Fd]>[Ec][DB] | [DF][B,D][CE] [DF]2 [DB] | %3
 [Fd]>[Ec][DB] [Fd]>[Ec][DB] |[M:5/8] ced c2 |[M:1/8] F |[M:3/4] AG AB AB | cB c d2 d | %8
 [Ge][Gd] [Gc]B AB | cd c [B,DB]3 | [Fd]>[Ec] [DB] .[DF]3 | [Fd]>[Ec] [DB] [DF]2 [B,F] | %12
 [EG][Ge] [EG]F [DB][Fd] |[M:5/8] c>BA [DB]2 |] %14
V:2
 z3 z2 [B,,B,] | [B,,F,]>[B,,F,][B,,F,] [B,,F,]>[B,,F,][B,,B,] | %2
 [B,,B,][B,,F,][B,,F,] [B,,B,]2 [B,,F,] | [B,,F,]>[B,,F,][B,,F,] [B,,F,]>[B,,F,][B,,F,] | %4
[M:5/8] [F,A,F][F,CF][F,B,F] [F,A,F]2 |[M:1/8] F, | %6
[M:3/4] [F,CE][F,CE] [F,CE][F,B,D] [F,CE][F,B,D] | %7
 [F,A,E][F,B,D][K:treble] [F,A,F] [B,F]2 [G,B,G] | [C,C][D,=B,] [E,C][F,DF] [F,CE][F,_B,D] | %9
 [F,A,E][F,A,F] [F,A,E] B,,3 | B,,>B,, .B,,2 z/ C/B, | F,->[B,,F,-] [B,,F,]2 z/ C/D, | %12
 E,E, E,D, B,,[B,,B,] |[M:5/8] [F,A,E]>[F,B,D][F,CE] [B,,B,]2 |] %14
V:3
 x6 | x6 | x6 | x6 |[M:5/8] x5 |[M:1/8] x |[M:3/4] x6 | x2[K:treble] x4 | x6 | x6 | z2 z B,,3 | %11
 B,,2 z .B,,3 | x6 |[M:5/8] x5 |] %14
V:4
 x6 | x6 | x6 | x6 |[M:5/8] x5 |[M:1/8] x |[M:3/4] x6 | x6 | x6 | x6 | x6 | x6 | B,6 |[M:5/8] x5 |] %14

